X: 720
T: The Knocknaboul Polka
B: jims roots
M:2/4
L:1/8
Q: 1/4=100
K:Gmaj
V:1 
|: xD |"G"GB B/c/B/A/ | GB BA | "D"FA AB/A/ | FA DA |
   "G"GB B/c/B/A/ | GB dg | "D"f/e/d cA | "G"G2 G :|
|: xB/d/ |"G"g2 gd | g/a/b ag | "D"fd de | fg af |
   "G"g2 gd | g/a/b ag | "D"f/e/d cA | "G"G2 G :|
|: xA |"G"BA/B/ cB/c/ | dc AG | "D"FD DE | FG Ac |
   "G"BA/B/ cB/c/ | dc Ag | "D"f/e/d cA | "G"G2 G :|
% abcbook-tune_id 6298c25d7e90dbf61a6e0d49


% abcbook-boost 0
% abcbook-tablature 
% abcbook-transpose 
% abcbook-lastupdated 1654178399554
% abcbook-soundfonts 
% abcbook-repeats 1
% ceolachan

